; generated by Slic3r 1.2.9 on 2017-04-25 at 03:33:22

; external perimeters extrusion width = 0.40mm
; perimeters extrusion width = 0.67mm
; infill extrusion width = 0.67mm
; solid infill extrusion width = 0.67mm
; top infill extrusion width = 0.67mm

M107
M190 S60 ; set bed temperature
M104 S215 ; set temperature
G28 ; home all axes
G29 ; level bed
G1 Z5 F5000 ; lift nozzle

M109 S215 ; wait for temperature to be reached
G21 ; set units to millimeters
G90 ; use absolute coordinates
M82 ; use absolute distances for extrusion
G92 E0
G1 Z0.200 F7800.000
G1 E-2.00000 F2400.00000
G92 E0
G1 X61.165 Y45.931 F7800.000
G1 E2.00000 F2400.00000
G1 X62.956 Y44.181 E2.12426 F1800.000
G1 X65.205 Y43.081 E2.24852
G1 X67.500 Y42.740 E2.36368
G1 X132.500 Y42.740 E5.58980
G1 X134.972 Y43.138 E5.71406
G1 X137.194 Y44.290 E5.83832 F1800.000
G1 X138.944 Y46.081 E5.96258
G1 X140.044 Y48.330 E6.08684
G1 X140.385 Y50.625 E6.20201
G1 X140.380 Y114.656 E9.38006
G1 X139.130 Y149.656 E11.11831
G1 X138.644 Y152.113 E11.24257
G1 X137.414 Y154.293 E11.36683
G1 X135.561 Y155.977 E11.49109
G1 X133.274 Y156.996 E11.61535
G1 X131.250 Y157.260 E11.71667
G1 X68.750 Y157.260 E14.81871
G1 X66.278 Y156.862 E14.94297
G1 X64.056 Y155.710 E15.06723
G1 X62.306 Y153.919 E15.19149
G1 X61.206 Y151.670 E15.31575
G1 X60.870 Y149.656 E15.41708
G1 X59.615 Y114.375 E17.16930
G1 X59.615 Y50.625 E20.33338
G1 X60.013 Y48.153 E20.45764
G1 X61.137 Y45.984 E20.57892
G1 X61.738 Y46.242 F7800.000
G1 X61.789 Y46.148 E20.58424 F1800.000
G1 X63.562 Y44.530 E20.70342
G1 X65.767 Y43.578 E20.82259
G1 X67.500 Y43.368 E20.90923
G1 X132.500 Y43.368 E24.13535
G1 X134.868 Y43.766 E24.25453
G1 X136.977 Y44.914 E24.37370 F1800.000
G1 X138.595 Y46.687 E24.49287
G1 X139.547 Y48.892 E24.61205
G1 X139.757 Y50.625 E24.69869
G1 X139.752 Y114.634 E27.87563
G1 X138.502 Y149.634 E29.61388
G1 X138.021 Y151.986 E29.73305
G1 X136.798 Y154.053 E29.85222
G1 X134.968 Y155.607 E29.97140
G1 X132.730 Y156.479 E30.09057
G1 X131.250 Y156.632 E30.16444
G1 X68.750 Y156.632 E33.26648
G1 X66.382 Y156.234 E33.38565
G1 X64.273 Y155.086 E33.50482
G1 X62.655 Y153.313 E33.62400
G1 X61.703 Y151.108 E33.74317
G1 X61.498 Y149.634 E33.81703
G1 X60.243 Y114.375 E35.56814
G1 X60.243 Y50.625 E38.73222
G1 X60.641 Y48.257 E38.85140
G1 X61.709 Y46.295 E38.96227
G1 X62.303 Y46.567 F7800.000
G1 X62.412 Y46.377 E38.97317 F1800.000
G1 X64.165 Y44.897 E39.08703
G1 X66.317 Y44.103 E39.20089
G1 X67.500 Y43.997 E39.25983
G1 X132.500 Y43.997 E42.48596
G1 X134.759 Y44.394 E42.59981
G1 X136.748 Y45.537 E42.71367 F1800.000
G1 X138.228 Y47.290 E42.82753
G1 X139.022 Y49.442 E42.94139
G1 X139.128 Y50.625 E43.00033
G1 X139.124 Y114.612 E46.17616
G1 X137.874 Y149.612 E47.91441
G1 X137.397 Y151.855 E48.02827
G1 X136.183 Y153.802 E48.14213
G1 X134.379 Y155.219 E48.25599
G1 X131.250 Y156.003 E48.41607
G1 X68.750 Y156.003 E51.51812
G1 X66.491 Y155.606 E51.63198
G1 X64.502 Y154.463 E51.74584
G1 X63.022 Y152.710 E51.85970
G1 X62.126 Y149.612 E52.01978
G1 X60.872 Y114.375 E53.76978
G1 X60.872 Y50.625 E56.93386
G1 X61.269 Y48.366 E57.04772
G1 X62.273 Y46.619 E57.14770
G1 E55.14770 F2400.00000
G92 E0
G1 X125.568 Y139.981 F7800.000
G1 E2.00000 F2400.00000
G1 X126.046 Y140.107 E2.02455 F1800.000
G1 X126.308 Y140.211 E2.03852
G1 X126.742 Y140.447 E2.06303
G1 X127.144 Y140.756 E2.08822
G1 X127.477 Y141.109 E2.11228
G1 X127.649 Y141.341 E2.12666
G1 X127.887 Y141.760 E2.15054
G1 X127.996 Y142.019 E2.16451
G1 X128.132 Y142.494 E2.18902
G1 X128.191 Y142.984 E2.21353
G1 X128.191 Y143.265 E2.22749
G1 X128.133 Y143.747 E2.25156
G1 X127.993 Y144.243 E2.27717
G1 X127.783 Y144.692 E2.30171
G1 X127.634 Y144.931 E2.31569
G1 X127.326 Y145.316 E2.34018
G1 X126.967 Y145.641 E2.36425
G1 X126.731 Y145.809 E2.37863
G1 X126.308 Y146.039 E2.40250
G1 X126.046 Y146.143 E2.41648
G1 X125.569 Y146.269 E2.44099
G1 X125.077 Y146.318 E2.46550
G1 X124.796 Y146.312 E2.47947
G1 X124.307 Y146.244 E2.50398
G1 X123.835 Y146.099 E2.52849
G1 X123.578 Y145.985 E2.54245
G1 X123.161 Y145.737 E2.56652
G1 X122.764 Y145.407 E2.59213
G1 X122.430 Y145.024 E2.61735
G1 X122.174 Y144.612 E2.64141
G1 X122.050 Y144.350 E2.65579
G1 X121.896 Y143.880 E2.68036
G1 X121.817 Y143.392 E2.70487
G1 X121.807 Y143.125 E2.71815
G1 X121.817 Y142.858 E2.73143
G1 X121.894 Y142.379 E2.75550
G1 X122.050 Y141.902 E2.78042
G1 X122.169 Y141.646 E2.79442
G1 X122.425 Y141.234 E2.81849
G1 X122.763 Y140.844 E2.84409
G1 X123.153 Y140.518 E2.86933
G1 X123.577 Y140.265 E2.89384
G1 X123.835 Y140.151 E2.90781
G1 X124.294 Y140.010 E2.93164
G1 X124.570 Y139.960 E2.94560
G1 X125.054 Y139.931 E2.96967 F1800.000
G1 X125.508 Y139.975 E2.99230
G1 X125.480 Y140.467 F7800.000
G1 X125.892 Y140.576 E3.00429 F1800.000
G1 X126.099 Y140.658 E3.01058
G1 X126.472 Y140.861 E3.02257
G1 X126.812 Y141.123 E3.03467
G1 X127.098 Y141.426 E3.04643
G1 X127.236 Y141.611 E3.05293
G1 X127.444 Y141.977 E3.06482
G1 X127.531 Y142.183 E3.07110
G1 X127.647 Y142.592 E3.08309
G1 X127.698 Y143.014 E3.09509
G1 X127.698 Y143.236 E3.10137
G1 X127.649 Y143.650 E3.11313
G1 X127.530 Y144.071 E3.12546
G1 X127.349 Y144.456 E3.13745
G1 X127.232 Y144.645 E3.14373
G1 X126.966 Y144.977 E3.15572
G1 X126.657 Y145.257 E3.16748
G1 X126.469 Y145.391 E3.17399
G1 X126.099 Y145.592 E3.18588
G1 X125.892 Y145.674 E3.19216
G1 X125.481 Y145.783 E3.20415
G1 X125.058 Y145.825 E3.21614
G1 X124.835 Y145.820 E3.22242
G1 X124.414 Y145.761 E3.23441
G1 X124.008 Y145.636 E3.24641
G1 X123.804 Y145.546 E3.25268
G1 X123.446 Y145.333 E3.26445
G1 X123.110 Y145.054 E3.27677
G1 X122.828 Y144.730 E3.28888
G1 X122.607 Y144.376 E3.30064
G1 X122.509 Y144.167 E3.30715
G1 X122.376 Y143.763 E3.31915
G1 X122.309 Y143.344 E3.33114
G1 X122.300 Y143.125 E3.33731
G1 X122.309 Y142.907 E3.34348
G1 X122.374 Y142.495 E3.35524
G1 X122.509 Y142.083 E3.36745
G1 X122.603 Y141.881 E3.37374
G1 X122.823 Y141.527 E3.38550
G1 X123.109 Y141.197 E3.39783
G1 X123.439 Y140.921 E3.40994
G1 X123.804 Y140.704 E3.42193
G1 X124.008 Y140.614 E3.42821
G1 X124.410 Y140.490 E3.44009
G1 X124.629 Y140.450 E3.44637
G1 X125.045 Y140.425 E3.45813 F1800.000
G1 X125.421 Y140.462 E3.46877
G1 X125.747 Y140.169 F7800.000
G1 X120.265 Y137.221 F7800.000
G1 X120.134 Y137.431 E3.48100 F1800.000
G1 X119.826 Y137.816 E3.50550
G1 X119.467 Y138.141 E3.52956
G1 X119.231 Y138.309 E3.54394
G1 X118.808 Y138.539 E3.56782
G1 X118.546 Y138.643 E3.58179
G1 X118.069 Y138.769 E3.60630
G1 X117.577 Y138.818 E3.63081
G1 X117.296 Y138.812 E3.64478
G1 X116.807 Y138.744 E3.66929
G1 X116.335 Y138.599 E3.69380
G1 X116.078 Y138.485 E3.70776
G1 X115.661 Y138.237 E3.73184
G1 X115.264 Y137.907 E3.75744
G1 X114.930 Y137.524 E3.78266
G1 X114.674 Y137.112 E3.80673
G1 X114.550 Y136.850 E3.82111
G1 X114.396 Y136.380 E3.84567
G1 X114.317 Y135.892 E3.87018
G1 X114.317 Y135.358 E3.89672
G1 X114.394 Y134.879 E3.92079
G1 X114.550 Y134.402 E3.94571
G1 X114.669 Y134.146 E3.95971
G1 X114.925 Y133.734 E3.98378
G1 X115.263 Y133.344 E4.00939
G1 X115.653 Y133.018 E4.03462
G1 X116.077 Y132.765 E4.05914
G1 X116.335 Y132.651 E4.07311
G1 X116.794 Y132.510 E4.09693
G1 X117.070 Y132.460 E4.11089
G1 X117.554 Y132.431 E4.13496 F1800.000
G1 X118.068 Y132.481 E4.16057
G1 X118.546 Y132.607 E4.18512
G1 X118.808 Y132.711 E4.19909
G1 X119.242 Y132.947 E4.22360
G1 X119.644 Y133.256 E4.24878
G1 X119.977 Y133.609 E4.27285
G1 X120.149 Y133.841 E4.28723
G1 X120.387 Y134.260 E4.31110
G1 X120.496 Y134.519 E4.32507
G1 X120.632 Y134.994 E4.34958
G1 X120.691 Y135.484 E4.37409
G1 X120.691 Y135.765 E4.38805
G1 X120.633 Y136.247 E4.41213
G1 X120.493 Y136.743 E4.43773
G1 X120.294 Y137.169 E4.46104
G1 X119.846 Y136.961 F7800.000
G1 X119.732 Y137.145 E4.46716 F1800.000
G1 X119.466 Y137.477 E4.47915
G1 X119.157 Y137.757 E4.49091
G1 X118.969 Y137.891 E4.49742
G1 X118.599 Y138.092 E4.50931
G1 X118.392 Y138.174 E4.51559
G1 X117.981 Y138.283 E4.52758
G1 X117.558 Y138.325 E4.53957
G1 X117.335 Y138.320 E4.54585
G1 X116.914 Y138.261 E4.55784
G1 X116.508 Y138.136 E4.56984
G1 X116.304 Y138.046 E4.57611
G1 X115.946 Y137.833 E4.58788
G1 X115.610 Y137.554 E4.60021
G1 X115.328 Y137.230 E4.61231
G1 X115.107 Y136.876 E4.62407
G1 X115.009 Y136.667 E4.63058
G1 X114.876 Y136.263 E4.64258
G1 X114.809 Y135.844 E4.65457
G1 X114.809 Y135.407 E4.66690
G1 X114.874 Y134.995 E4.67866
G1 X115.009 Y134.583 E4.69087
G1 X115.103 Y134.381 E4.69716
G1 X115.323 Y134.027 E4.70892
G1 X115.609 Y133.697 E4.72125
G1 X115.939 Y133.421 E4.73336
G1 X116.304 Y133.204 E4.74535
G1 X116.508 Y133.114 E4.75163
G1 X116.910 Y132.990 E4.76351
G1 X117.129 Y132.950 E4.76979
G1 X117.545 Y132.925 E4.78155 F1800.000
G1 X117.980 Y132.967 E4.79388
G1 X118.392 Y133.076 E4.80588
G1 X118.599 Y133.158 E4.81216
G1 X118.972 Y133.361 E4.82415
G1 X119.312 Y133.623 E4.83625
G1 X119.598 Y133.926 E4.84801
G1 X119.736 Y134.111 E4.85452
G1 X119.944 Y134.477 E4.86641
G1 X120.031 Y134.683 E4.87269
G1 X120.147 Y135.092 E4.88468
G1 X120.198 Y135.514 E4.89667
G1 X120.198 Y135.736 E4.90295
G1 X120.149 Y136.150 E4.91471
G1 X120.030 Y136.571 E4.92704
G1 X119.872 Y136.907 E4.93750
G1 X119.956 Y137.148 F7800.000
G1 E2.93750 F2400.00000
G92 E0
G1 X112.326 Y130.316 F7800.000
G1 E2.00000 F2400.00000
G1 X111.967 Y130.641 E2.02406 F1800.000
G1 X111.731 Y130.809 E2.03844
G1 X111.308 Y131.039 E2.06232
G1 X111.046 Y131.143 E2.07629
G1 X110.569 Y131.269 E2.10080
G1 X110.077 Y131.318 E2.12531
G1 X109.796 Y131.312 E2.13928
G1 X109.307 Y131.244 E2.16379
G1 X108.835 Y131.099 E2.18830
G1 X108.578 Y130.985 E2.20226
G1 X108.161 Y130.737 E2.22634
G1 X107.764 Y130.407 E2.25194
G1 X107.430 Y130.024 E2.27716
G1 X107.174 Y129.612 E2.30123
G1 X107.050 Y129.350 E2.31561
G1 X106.896 Y128.880 E2.34017
G1 X106.817 Y128.392 E2.36468
G1 X106.807 Y128.125 E2.37797
G1 X106.817 Y127.858 E2.39124
G1 X106.894 Y127.379 E2.41532
G1 X107.050 Y126.902 E2.44023
G1 X107.169 Y126.646 E2.45423
G1 X107.425 Y126.234 E2.47831
G1 X107.763 Y125.844 E2.50391
G1 X108.153 Y125.518 E2.52915
G1 X108.577 Y125.265 E2.55366
G1 X108.835 Y125.151 E2.56763
G1 X109.294 Y125.010 E2.59145
G1 X109.570 Y124.960 E2.60541
G1 X110.054 Y124.931 E2.62949 F1800.000
G1 X110.568 Y124.981 E2.65509
G1 X111.046 Y125.107 E2.67964
G1 X111.308 Y125.211 E2.69361
G1 X111.742 Y125.447 E2.71812
G1 X112.144 Y125.756 E2.74331
G1 X112.477 Y126.109 E2.76737
G1 X112.649 Y126.341 E2.78175
G1 X112.887 Y126.760 E2.80563
G1 X112.996 Y127.019 E2.81960
G1 X113.132 Y127.494 E2.84411
G1 X113.191 Y127.984 E2.86862
G1 X113.191 Y128.265 E2.88258
G1 X113.133 Y128.747 E2.90665
G1 X112.993 Y129.243 E2.93225
G1 X112.783 Y129.692 E2.95680
G1 X112.634 Y129.931 E2.97078
G1 X112.363 Y130.269 E2.99230
G1 X111.966 Y129.977 F7800.000
G1 X111.657 Y130.257 E3.00405 F1800.000
G1 X111.469 Y130.391 E3.01056
G1 X111.099 Y130.592 E3.02245
G1 X110.892 Y130.674 E3.02873
G1 X110.481 Y130.783 E3.04072
G1 X110.058 Y130.825 E3.05271
G1 X109.835 Y130.820 E3.05899
G1 X109.414 Y130.761 E3.07099
G1 X109.008 Y130.636 E3.08298
G1 X108.804 Y130.546 E3.08926
G1 X108.446 Y130.333 E3.10102
G1 X108.110 Y130.054 E3.11335
G1 X107.828 Y129.730 E3.12546
G1 X107.607 Y129.376 E3.13721
G1 X107.509 Y129.167 E3.14372
G1 X107.376 Y128.763 E3.15572
G1 X107.309 Y128.344 E3.16771
G1 X107.300 Y128.125 E3.17388
G1 X107.309 Y127.907 E3.18005
G1 X107.374 Y127.495 E3.19181
G1 X107.509 Y127.083 E3.20403
G1 X107.603 Y126.881 E3.21031
G1 X107.823 Y126.527 E3.22207
G1 X108.109 Y126.197 E3.23440
G1 X108.439 Y125.921 E3.24651
G1 X108.804 Y125.704 E3.25850
G1 X109.008 Y125.614 E3.26478
G1 X109.410 Y125.490 E3.27666
G1 X109.629 Y125.450 E3.28294
G1 X110.045 Y125.425 E3.29470 F1800.000
G1 X110.480 Y125.467 E3.30703
G1 X110.892 Y125.576 E3.31903
G1 X111.099 Y125.658 E3.32531
G1 X111.472 Y125.861 E3.33730
G1 X111.812 Y126.123 E3.34941
G1 X112.098 Y126.426 E3.36116
G1 X112.236 Y126.611 E3.36767
G1 X112.444 Y126.977 E3.37956
G1 X112.531 Y127.183 E3.38584
G1 X112.647 Y127.592 E3.39783
G1 X112.698 Y128.014 E3.40982
G1 X112.698 Y128.236 E3.41610
G1 X112.649 Y128.650 E3.42786
G1 X112.530 Y129.071 E3.44019
G1 X112.349 Y129.456 E3.45219
G1 X112.232 Y129.645 E3.45847
G1 X112.003 Y129.930 E3.46877
G1 X112.071 Y130.363 F7800.000
G1 E1.46877 F2400.00000
G92 E0
G1 X104.443 Y122.568 F7800.000
G1 E2.00000 F2400.00000
G1 X130.557 Y122.568 E3.29614 F1800.000
G1 X130.557 Y148.682 E4.59227
G1 X104.443 Y148.682 E5.88841
G1 X104.443 Y122.628 E7.18157
G1 X103.950 Y122.075 F7800.000
G1 X131.050 Y122.075 E7.94597 F1800.000
G1 X131.050 Y149.175 E8.71037
G1 X103.950 Y149.175 E9.47478
G1 X103.950 Y122.135 E10.23749
G1 X104.296 Y122.275 F7800.000
G1 X104.855 Y128.334 F7800.000
G1 X124.791 Y148.270 E11.64268 F1800.000
G1 X125.684 Y148.270 E11.68715
G1 X124.059 Y146.645 E11.80168
G1 X125.030 Y146.724 E11.85024
G1 X126.576 Y148.270 E11.95921
G1 X127.468 Y148.270 E12.00368
G1 X125.801 Y146.603 E12.12118
G1 X126.461 Y146.371 E12.15604
G1 X128.361 Y148.270 E12.28992
G1 X129.253 Y148.270 E12.33439
G1 X127.024 Y146.042 E12.49147
G1 X127.508 Y145.633 E12.52302
G1 X130.125 Y148.250 E12.70751
G1 X130.145 Y147.378 E12.75099
G1 X127.917 Y145.150 E12.90801
G1 X128.241 Y144.582 E12.94062
G1 X130.145 Y146.486 E13.07481
G1 X130.145 Y145.593 E13.11928
G1 X128.478 Y143.927 E13.23676
G1 X128.603 Y143.159 E13.27552
G1 X130.145 Y144.701 E13.38422
G1 X130.145 Y143.809 E13.42869
G1 X128.514 Y142.177 E13.54369
G1 X125.953 Y139.617 F7800.000
G1 X121.014 Y134.677 E13.89183 F1800.000
G1 X121.103 Y135.659 E13.94096
G1 X124.975 Y139.531 E14.21386
G1 X124.196 Y139.644 E14.25309
G1 X120.978 Y136.427 E14.47986
G1 X120.741 Y137.082 E14.51458
G1 X123.538 Y139.879 E14.71172
G1 X122.971 Y140.204 E14.74429
G1 X120.417 Y137.650 E14.92430
G1 X120.008 Y138.133 E14.95585
G1 X122.489 Y140.614 E15.13075
G1 X122.083 Y141.100 E15.16232
G1 X119.524 Y138.542 E15.34263
G1 X118.961 Y138.871 E15.37514
G1 X121.754 Y141.664 E15.57202
G1 X121.517 Y142.318 E15.60673
G1 X118.301 Y139.103 E15.83335
G1 X117.530 Y139.224 E15.87226
G1 X121.405 Y143.099 E16.14539
G1 X121.486 Y144.072 E16.19405
G1 X116.559 Y139.145 E16.54133
G1 X113.986 Y136.572 F7800.000
G1 X109.059 Y131.645 E16.88860 F1800.000
G1 X110.030 Y131.724 E16.93717
G1 X113.905 Y135.599 E17.21030
G1 X114.017 Y134.818 E17.24961
G1 X110.801 Y131.603 E17.47624
G1 X111.461 Y131.371 E17.51111
G1 X114.254 Y134.164 E17.70799
G1 X114.583 Y133.600 E17.74051
G1 X112.024 Y131.042 E17.92083
G1 X112.508 Y130.633 E17.95238
G1 X114.989 Y133.114 E18.12728
G1 X115.471 Y132.704 E18.15883
G1 X112.917 Y130.150 E18.33883
G1 X113.241 Y129.582 E18.37144
G1 X116.038 Y132.379 E18.56858
G1 X116.696 Y132.144 E18.60338
G1 X113.478 Y128.927 E18.83014
G1 X113.603 Y128.159 E18.86891
G1 X117.475 Y132.031 E19.14181
G1 X118.453 Y132.117 E19.19075
G1 X113.514 Y127.177 E19.53889
G1 E17.53889 F2400.00000
G92 E0
G1 X106.486 Y129.072 F7800.000
G1 E2.00000 F2400.00000
G1 X104.855 Y127.441 E2.11496 F1800.000
G1 X104.855 Y126.549 E2.15943
G1 X106.405 Y128.099 E2.26870
G1 X106.517 Y127.318 E2.30802
G1 X104.855 Y125.657 E2.42514
G1 X104.855 Y124.764 E2.46961
G1 X106.754 Y126.664 E2.60349
G1 X107.083 Y126.100 E2.63601
G1 X104.855 Y123.872 E2.79302
G1 X104.875 Y123.000 E2.83651
G1 X107.489 Y125.614 E3.02077
G1 X107.971 Y125.204 E3.05232
G1 X105.747 Y122.980 E3.20908
G1 X106.639 Y122.980 E3.25355
G1 X108.538 Y124.879 E3.38738
G1 X109.196 Y124.644 E3.42218
G1 X107.532 Y122.980 E3.53947
G1 X108.424 Y122.980 E3.58394
G1 X109.975 Y124.531 E3.69324
G1 X110.953 Y124.617 E3.74218
G1 X109.316 Y122.980 E3.85754
G1 X110.209 Y122.980 E3.90201
G1 X130.145 Y142.916 E5.30721
G1 X130.145 Y142.024 E5.35168
G1 X111.101 Y122.980 E6.69399
G1 X111.993 Y122.980 E6.73846
G1 X130.145 Y141.132 E8.01787
G1 X130.145 Y140.240 E8.06234
G1 X112.885 Y122.980 E9.27887
G1 X113.778 Y122.980 E9.32334
G1 X130.145 Y139.347 E10.47698
G1 X130.145 Y138.455 E10.52145
G1 X114.670 Y122.980 E11.61219
G1 X115.562 Y122.980 E11.65666
G1 X130.145 Y137.563 E12.68452
G1 X130.145 Y136.671 E12.72899
G1 X116.454 Y122.980 E13.69396
G1 X117.347 Y122.980 E13.73843
G1 X130.145 Y135.778 E14.64050
G1 X130.145 Y134.886 E14.68497
G1 X118.239 Y122.980 E15.52416
G1 X119.131 Y122.980 E15.56863
G1 X130.145 Y133.994 E16.34492
G1 X130.145 Y133.101 E16.38939
